optimized/20/solid/document-plus.svg

<svg xmlns="http://www.w3.org/2000/svg" viewBox="0 0 20 20">
  <path fill-rule="evenodd" d="M4.5 2C3.67157 2 3 2.67157 3 3.5V16.5C3 17.3284 3.67157 18 4.5 18H15.5C16.3284 18 17 17.3284 17 16.5V7.62132C17 7.2235 16.842 6.84197 16.5607 6.56066L12.4393 2.43934C12.158 2.15804 11.7765 2 11.3787 2H4.5ZM10 8C10.4142 8 10.75 8.33579 10.75 8.75V10.25H12.25C12.6642 10.25 13 10.5858 13 11C13 11.4142 12.6642 11.75 12.25 11.75H10.75V13.25C10.75 13.6642 10.4142 14 10 14C9.58579 14 9.25 13.6642 9.25 13.25V11.75H7.75C7.33579 11.75 7 11.4142 7 11C7 10.5858 7.33579 10.25 7.75 10.25H9.25V8.75C9.25 8.33579 9.58579 8 10 8Z" clip-rule="evenodd"/>
</svg>

<svg xmlns="http://www.w3.org/2000/svg" viewBox="0 0 20 20" fill="currentColor" aria-hidden="true">
  <path fill-rule="evenodd" d="M4.5 2A1.5 1.5 0 003 3.5v13A1.5 1.5 0 004.5 18h11a1.5 1.5 0 001.5-1.5V7.621a1.5 1.5 0 00-.44-1.06l-4.12-4.122A1.5 1.5 0 0011.378 2H4.5zM10 8a.75.75 0 01.75.75v1.5h1.5a.75.75 0 010 1.5h-1.5v1.5a.75.75 0 01-1.5 0v-1.5h-1.5a.75.75 0 010-1.5h1.5v-1.5A.75.75 0 0110 8z" clip-rule="evenodd"/>
</svg>
